www/assets/icons/hls_off.svg

<svg width="24" height="24" viewBox="0 0 24 24" xmlns="http://www.w3.org/2000/svg" fill='currentColor'><path d="M18.545 14.295H20.215C20.765 14.295 21.215 13.845 21.215 13.295V11.795C21.215 11.245 20.765 10.795 20.215 10.795H17.715V9.79498H19.715V10.295H21.215V9.29498C21.215 8.74498 20.765 8.29498 20.215 8.29498H17.215C16.665 8.29498 16.215 8.74498 16.215 9.29498V10.795C16.215 11.345 16.665 11.795 17.215 11.795H19.715V12.795H17.715V12.295H16.545L18.545 14.295ZM8.71498 10.125V14.295H7.21498V11.795H5.21498V14.295H3.71498V8.29498H5.21498V10.295H7.21498V8.62498L2.10498 3.51498L3.51498 2.10498L21.895 20.485L20.485 21.895L12.885 14.295H10.715V12.125L8.71498 10.125Z"/></svg>

<svg xmlns="http://www.w3.org/2000/svg" width="24" height="24" viewBox="0 0 24 24" fill='currentColor'><path d="M18.545 14.295h1.67c.55 0 1-.45 1-1v-1.5c0-.55-.45-1-1-1h-2.5v-1h2v.5h1.5v-1c0-.55-.45-1-1-1h-3c-.55 0-1 .45-1 1v1.5c0 .55.45 1 1 1h2.5v1h-2v-.5h-1.17zm-9.83-4.17v4.17h-1.5v-2.5h-2v2.5h-1.5v-6h1.5v2h2v-1.67l-5.11-5.11 1.41-1.41 18.38 18.38-1.41 1.41-7.6-7.6h-2.17v-2.17z"/></svg>
